**harmony	**harte	**kern	**silbe	**kern	**silbe	**kern	**silbe	**rhyme	**timestamp	**phrase
*M4/4	*M4/4	*ICvox	*	*ICvox	*	*ICvox	*	*	*	*
*	*	*VRlead	*	*VRharmonize	*	*VRharmonize	*	*	*	*
*	*	*Hstimme	*	*Nstimme	*	*Nstimme	*	*	*	*
*A:	*A:	*A:	*	*A:	*	*:	*	*	*	*
=1	=1	=1	=1	=1	=1	=1	=1	=1	=1	=1
*	*	*M4/4	*	*M4/4	*	*M4/4	*	*	*	*
*	*	*clefF4	*	*clefC3	*	*clefG2	*	*	*	*
1r;	1r	r;	.	r;	.	r;	.	.	0	.
=2	=2	=2	=2	=2	=2	=2	=2	=2	=2	=2
*>Letter>A	*>Letter>A	*>Letter>A	*>Letter>A	*>Letter>A	*>Letter>A	*>Letter>A	*>Letter>A	*>Letter>A	*>Letter>A	*>Letter>A
*>Label>Intro	*>Label>Intro	*>Label>Intro	*>Label>Intro	*>Label>Intro	*>Label>Intro	*>Label>Intro	*>Label>Intro	*>Label>Intro	*>Label>Intro	*>Label>Intro
1AM	A:maj/5	1r	.	1r	.	1r	.	.	0.418	newline
=3	=3	=3	=3	=3	=3	=3	=3	=3	=3	=3
2C#mm	C#:min7/b3	1r	.	1r	.	1r	.	.	3.243	.
2Cd	C:dim	.	.	.	.	.	.	.	4.656	.
=4	=4	=4	=4	=4	=4	=4	=4	=4	=4	=4
2AM	A:maj(9)/5	1r	.	1r	.	1r	.	.	6.069	newline
2AM	A:maj/5	.	.	.	.	.	.	.	7.377	.
=5	=5	=5	=5	=5	=5	=5	=5	=5	=5	=5
*	*	*M3/4	*	*M3/4	*	*M3/4	*	*	*	*
4C#mm	C#:min7/b3	1r	.	1r	.	1r	.	.	8.684	.
4Cd	C:dim	.	.	.	.	.	.	.	9.338	.
4Bmm	B:min7/4	.	.	.	.	.	.	.	9.992	.
=6	=6	=6	=6	=6	=6	=6	=6	=6	=6	=6
*>Letter>B	*>Letter>B	*>Letter>B	*>Letter>B	*>Letter>B	*>Letter>B	*>Letter>B	*>Letter>B	*>Letter>B	*>Letter>B	*>Letter>B
*>Label>Theme	*>Label>Theme	*>Label>Theme	*>Label>Theme	*>Label>Theme	*>Label>Theme	*>Label>Theme	*>Label>Theme	*>Label>Theme	*>Label>Theme	*>Label>Theme
*	*	*M4/4	*	*M4/4	*	*M4/4	*	*	*	*
1AM	A:maj	1C#	I'm	1r	.	1r	.	.	10.646	newline
=7	=7	=7	=7	=7	=7	=7	=7	=7	=7	=7
4DM	D:maj/5	12D	drea-	1r	.	1r	.	.	13.129	.
.	.	12F#	_	.	.	.	.	.	.	.
.	.	12D	_	.	.	.	.	.	.	.
4AM	A:maj	4C#	-ming	.	.	.	.	.	13.749	.
4G#M	G#:maj/b2	4r	.	.	.	.	.	.	14.37	.
4AM	A:maj	16C	of	.	.	.	.	.	14.99	.
.	.	16C#	a	.	.	.	.	.	.	.
.	.	[8D	white	.	.	.	.	.	.	.
=8	=8	=8	=8	=8	=8	=8	=8	=8	=8	=8
1Bm	B:min	1D]	_	1r	.	1r	.	.	15.611	.
=9	=9	=9	=9	=9	=9	=9	=9	=9	=9	=9
2D#d	D#:dim/b2	8D#	Christ-	1r	.	1r	.	.	18.094	.
.	.	[8E	-mas	.	.	.	.	.	.	.
.	.	2E]	_	.	.	.	.	.	.	.
2EMm	E:7	.	.	.	.	.	.	.	19.335	.
.	.	4r	.	.	.	.	.	.	.	.
=10	=10	=10	=10	=10	=10	=10	=10	=10	=10	=10
1Bmm	B:min7	4r	.	1r	.	1r	.	.	20.576	newline
.	.	16r	.	.	.	.	.	.	.	.
.	.	8F#	Just	.	.	.	.	.	.	.
.	.	[16G#	like	.	.	.	.	.	.	.
.	.	4G#]	_	.	.	.	.	.	.	.
.	.	8A	the	.	.	.	.	.	.	.
.	.	[8B	ones	.	.	.	.	.	.	.
=11	=11	=11	=11	=11	=11	=11	=11	=11	=11	=11
2Bmm	B:min7/b3	2B_	_	1r	.	1r	.	.	22.99	.
2EMm	E:7	8B]	_	.	.	.	.	.	24.197	.
.	.	8A	I	.	.	.	.	.	.	.
.	.	[4G#	used	.	.	.	.	.	.	.
=12	=12	=12	=12	=12	=12	=12	=12	=12	=12	=12
2AM	A:maj	8G#]	_	1r	.	1r	.	.	25.404	.
.	.	8F#	to	.	.	.	.	.	.	.
.	.	2.E	know.	.	.	.	.	A	.	.
2EMm	E:7	.	.	.	.	.	.	.	26.611	.
=13	=13	=13	=13	=13	=13	=13	=13	=13	=13	=13
4G#M	G#:maj/b2	2r	.	1r	.	1r	.	.	27.818	.
4AM	A:maj	.	.	.	.	.	.	.	28.422	.
4Bmm	B:min7	4r	.	.	.	.	.	.	29.025	.
4EMm	E:7	8AA	Where	.	.	.	.	.	29.629	.
.	.	16BB	the	.	.	.	.	.	.	.
.	.	[16C#	tree	.	.	.	.	.	.	.
=14	=14	=14	=14	=14	=14	=14	=14	=14	=14	=14
1AM	A:maj	2C#]	_	1r	.	1r	.	.	30.232	newline
.	.	4C	tops	.	.	.	.	.	.	.
.	.	4r	.	.	.	.	.	.	.	.
=15	=15	=15	=15	=15	=15	=15	=15	=15	=15	=15
2AMm	A:9	12C#	glis-	1r	.	1r	.	(B	32.815	.
.	.	[6F#	-ten,	.	.	.	.	b)	.	.
.	.	2F#]	_	.	.	.	.	.	.	.
2AMm	A:7(b9)	.	.	.	.	.	.	.	34.106	.
.	.	4r	.	.	.	.	.	.	.	.
=16	=16	=16	=16	=16	=16	=16	=16	=16	=16	=16
1DMM	D:maj7	8r	.	1r	.	1r	.	.	35.397	.
.	.	[8E	and	.	.	.	.	.	.	.
.	.	8E]	_	.	.	.	.	.	.	.
.	.	[8AA	chil-	.	.	.	.	.	.	.
.	.	8AA]	_	.	.	.	.	.	.	.
.	.	4.AA	-dren	.	.	.	.	.	.	.
=17	=17	=17	=17	=17	=17	=17	=17	=17	=17	=17
1DMM	D:maj6(7)	12AA	lis-	1r	.	1r	.	(B	37.979	.
.	.	[6E	-ten,	.	.	.	.	b)	.	.
.	.	2E]	_	.	.	.	.	.	.	.
.	.	8r	.	.	.	.	.	.	.	.
.	.	8D	to	.	.	.	.	.	.	.
=18	=18	=18	=18	=18	=18	=18	=18	=18	=18	=18
1F#m	F#:min	1C#	hear	1r	.	1r	.	.	40.561	newline
=19	=19	=19	=19	=19	=19	=19	=19	=19	=19	=19
2F#mm	F#:min7	12D	sleigh	1r	.	1r	.	.	43.052	.
.	.	12F#	_	.	.	.	.	.	.	.
.	.	12D	_	.	.	.	.	.	.	.
.	.	2C#	bells	.	.	.	.	.	.	.
2BMm	B:7	.	.	.	.	.	.	.	44.297	.
.	.	12BB	in	.	.	.	.	.	.	.
.	.	6AA	the	.	.	.	.	.	.	.
=20	=20	=20	=20	=20	=20	=20	=20	=20	=20	=20
1EM	E:sus4(b7)	1BB	snow.	1r	.	1r	.	A	45.543	.
=21	=21	=21	=21	=21	=21	=21	=21	=21	=21	=21
1EMm	E:7	2r	.	1r	.	1r	.	.	48.033	.
.	.	4r	.	.	.	.	.	.	.	.
.	.	8r	.	.	.	.	.	.	.	.
.	.	16r	.	.	.	.	.	.	.	.
.	.	[16C#	I'm	.	.	.	.	.	.	.
=22	=22	=22	=22	=22	=22	=22	=22	=22	=22	=22
*>Letter>B2	*>Letter>B2	*>Letter>B2	*>Letter>B2	*>Letter>B2	*>Letter>B2	*>Letter>B2	*>Letter>B2	*>Letter>B2	*>Letter>B2	*>Letter>B2
*>Label>Theme	*>Label>Theme	*>Label>Theme	*>Label>Theme	*>Label>Theme	*>Label>Theme	*>Label>Theme	*>Label>Theme	*>Label>Theme	*>Label>Theme	*>Label>Theme
1AMm	A:7	1C#]	_	1r	.	1r	.	.	50.524	newline
=23	=23	=23	=23	=23	=23	=23	=23	=23	=23	=23
4DM	D:maj/5	12D	drea-	1r	.	1r	.	.	53.002	.
.	.	12E	_	.	.	.	.	.	.	.
.	.	12D	_	.	.	.	.	.	.	.
4AM	A:maj	4C#	-ming	.	.	.	.	.	53.622	.
4G#M	G#:maj/b2	4r	.	.	.	.	.	.	54.241	.
4AM	A:maj	12r	.	.	.	.	.	.	54.861	.
.	.	12FF#	of	.	.	.	.	.	.	.
.	.	12~BB	a	.	.	.	.	.	.	.
=24	=24	=24	=24	=24	=24	=24	=24	=24	=24	=24
1Bm	B:min	1D	white	1r	.	1r	.	.	55.481	.
=25	=25	=25	=25	=25	=25	=25	=25	=25	=25	=25
2D#d	D#:dim/b2	8D#	Christ-	1r	.	1r	.	.	57.959	.
.	.	[8E	-mas	.	.	.	.	.	.	.
.	.	2.E]	_	.	.	.	.	.	.	.
2EMm	E:7	.	.	.	.	.	.	.	59.198	.
=26	=26	=26	=26	=26	=26	=26	=26	=26	=26	=26
1Bmm	B:min7	4r	.	1r	.	1r	.	.	60.438	newline
.	.	8r	.	.	.	.	.	.	.	.
.	.	8F#	with	.	.	.	.	.	.	.
.	.	8G#	ev-	.	.	.	.	.	.	.
.	.	[8A	-'ry	.	.	.	.	.	.	.
.	.	4A]	_	.	.	.	.	.	.	.
=27	=27	=27	=27	=27	=27	=27	=27	=27	=27	=27
2Bmm	B:min7/b3	4B	Christ-	1r	.	1r	.	.	62.937	.
.	.	4A	-mas	.	.	.	.	.	.	.
2EMm	E:7	2G#	card	.	.	.	.	.	64.187	.
=28	=28	=28	=28	=28	=28	=28	=28	=28	=28	=28
2AM	A:maj	8FF#	I	1r	.	1r	.	.	65.436	.
.	.	[8E	write	.	.	.	.	C	.	.
.	.	2.E]	_	.	.	.	.	.	.	.
2G#M	G#:maj/b2	.	.	.	.	.	.	.	66.686	.
=29	=29	=29	=29	=29	=29	=29	=29	=29	=29	=29
2AM	A:maj	2r	.	1r	.	1r	.	.	67.935	.
4Bmm	B:min7	4AA	May	.	.	.	.	.	69.185	.
4EMm	E:7	8BB	your	.	.	.	.	.	69.81	.
.	.	[8C#	days	.	.	.	.	.	.	.
=30	=30	=30	=30	=30	=30	=30	=30	=30	=30	=30
1AM	A:maj	2C#]	_	1r	.	1r	.	.	70.435	newline
.	.	4r	.	.	.	.	.	.	.	.
.	.	8r	.	.	.	.	.	.	.	.
.	.	8FF#	be	.	.	.	.	.	.	.
=31	=31	=31	=31	=31	=31	=31	=31	=31	=31	=31
2AMm	A:9	8C#	mer-	1r	.	1r	.	.	72.997	.
.	.	[8F#	-ry	.	.	.	.	.	.	.
.	.	2F#]	_	.	.	.	.	.	.	.
2AMm	A:7(b9)	.	.	.	.	.	.	.	74.278	.
.	.	4E	and	.	.	.	.	.	.	.
=32	=32	=32	=32	=32	=32	=32	=32	=32	=32	=32
1DMM	D:maj7	[1A	bright,	1r	.	1r	.	C	75.559	.
=33	=33	=33	=33	=33	=33	=33	=33	=33	=33	=33
1Dm	D:min	4A]	_	1r	.	1r	.	.	78.121	.
.	.	4r	.	.	.	.	.	.	.	.
.	.	4.AA	and	.	.	.	.	.	.	.
.	.	8BB	may	.	.	.	.	.	.	.
=34	=34	=34	=34	=34	=34	=34	=34	=34	=34	=34
2AM	A:maj	2.C#	all	1r	.	1r	.	.	80.684	newline
2AMm	A:7	.	.	.	.	.	.	.	81.69	.
.	.	4C#	your	.	.	.	.	.	.	.
=35	=35	=35	=35	=35	=35	=35	=35	=35	=35	=35
2DM	D:maj	4.F#	Christ-	1r	.	1r	.	.	82.696	.
.	.	8GG#	-ma-	.	.	.	.	.	.	.
2EMm	E:7(b9)	4.GG#	-ses	.	.	.	.	.	83.703	.
.	.	8GG#	be	.	.	.	.	.	.	.
=36	=36	=36	=36	=36	=36	=36	=36	=36	=36	=36
2AM	A:maj	1AA	white.	1r	.	1r	.	C	84.709	.
2C#mm	C#:min7	.	.	.	.	.	.	.	85.715	.
=37	=37	=37	=37	=37	=37	=37	=37	=37	=37	=37
2F#mm	F#:min7	1r	.	1r	.	1r	.	.	86.722	.
4EMm	E:7/5	.	.	.	.	.	.	.	88.734	.
4B-M	B-:maj	.	.	.	.	.	.	.	89.741	.
=38	=38	=38	=38	=38	=38	=38	=38	=38	=38	=38
*>Letter>B3	*>Letter>B3	*>Letter>B3	*>Letter>B3	*>Letter>B3	*>Letter>B3	*>Letter>B3	*>Letter>B3	*>Letter>B3	*>Letter>B3	*>Letter>B3
*>Label>Theme	*>Label>Theme	*>Label>Theme	*>Label>Theme	*>Label>Theme	*>Label>Theme	*>Label>Theme	*>Label>Theme	*>Label>Theme	*>Label>Theme	*>Label>Theme
1AM	A:maj	1r	.	1AA 1E 1c#	I'm	1e 1a 1cc#	_	.	90.747	newline
=39	=39	=39	=39	=39	=39	=39	=39	=39	=39	=39
4DM	D:maj/5	1r	.	4AA 4F# 4d	drea-	4f# 4a 4dd	_	.	93.229	.
4AM	A:maj	.	.	4AA 4E 4c#	-ming	4e 4a 4cc#	_	.	93.85	.
4G#M	G#:maj/b2	.	.	4AA 4D# 4c	of	4d# 4a 4cc	_	.	94.47	.
4AM	A:maj	.	.	4AA 4E 4c#	a	4e 4a 4cc#	_	.	95.091	.
=40	=40	=40	=40	=40	=40	=40	=40	=40	=40	=40
1Bmm	B:min7	1r	.	1BB 1F# 1A 1d	white	1f# 1a 1dd	_	.	95.711	.
=41	=41	=41	=41	=41	=41	=41	=41	=41	=41	=41
2D#d	D#:dim/b2	1r	.	4EE 4F## 4c# 4d#	Christ-	4g 4a# 4dd#	_	.	98.193	.
.	.	.	.	4EE 4G# 4d 4e	-mas,	4g# 4b 4ee	_	.	.	.
2EMm	E:7	.	.	2r	.	2r	.	.	99.434	.
=42	=42	=42	=42	=42	=42	=42	=42	=42	=42	=42
1Bmm	B:min7	1r	.	4r	.	1r	.	.	100.675	newline
.	.	.	.	4F#	just	.	.	.	.	.
.	.	.	.	4G#	like	.	.	.	.	.
.	.	.	.	8A	the	.	.	.	.	.
.	.	.	.	[8B	ones	.	.	.	.	.
=43	=43	=43	=43	=43	=43	=43	=43	=43	=43	=43
2DM	D:maj	1r	.	4B]	_	1r	.	.	103.151	.
.	.	.	.	4A	I	.	.	.	.	.
2EMm	E:7	.	.	4.G#	used	.	.	.	104.389	.
.	.	.	.	8F#	to	.	.	.	.	.
=44	=44	=44	=44	=44	=44	=44	=44	=44	=44	=44
1AM	A:maj	1r	.	1E	know.	1r	.	A	105.627	.
=45	=45	=45	=45	=45	=45	=45	=45	=45	=45	=45
4G#M	G#:maj/b2	1r	.	2r	.	1r	.	.	108.103	.
2.AM	A:maj	.	.	.	.	.	.	.	108.722	.
.	.	.	.	4A	Where	.	.	.	.	.
.	.	.	.	4B	the	.	.	.	.	.
=46	=46	=46	=46	=46	=46	=46	=46	=46	=46	=46
2AM	A:maj	1r	.	2AA 2E 2A 2c#	tree-	1r	.	.	110.579	newline
2AMm	A:7	.	.	2AA 2E 2G# 2B 2c#	-tops	.	.	.	111.836	.
=47	=47	=47	=47	=47	=47	=47	=47	=47	=47	=47
1AMm	A:7	1r	.	4AA 4E 4G 4c#	glis-	2r	.	(B	113.093	.
.	.	.	.	2AA 2E 2G	-ten,	.	.	b)	.	.
.	.	.	.	.	.	4r	.	.	.	.
.	.	.	.	4E	and	4e	_	.	.	.
=48	=48	=48	=48	=48	=48	=48	=48	=48	=48	=48
1DM	D:maj	1r	.	2AA 2D 2F# 2A	chil-	2d 2f# 2a	_	.	115.607	.
.	.	.	.	2AA 2D 2F# 2A	-dren	2d 2f# 2a	_	.	.	.
=49	=49	=49	=49	=49	=49	=49	=49	=49	=49	=49
1DMM	D:maj6(7)	1r	.	4AA 4F 4A 4B	lis-	4d 4f 4a	_	(B	118.121	.
.	.	.	.	4AA 4F 4A 4B	-ten,	4f 4b 4ee	_	b)	.	.
.	.	.	.	4r	.	2r	.	.	.	.
.	.	.	.	4AA 4F 4d	to	.	.	.	.	.
=50	=50	=50	=50	=50	=50	=50	=50	=50	=50	=50
1AM	A:maj	1r	.	1AA 1E 1c#	hear...	4r	.	.	120.635	newline
.	.	.	.	.	.	4e	To	.	.	.
.	.	.	.	.	.	4a	hear	.	.	.
.	.	.	.	.	.	4cc#	those	.	.	.
=51	=51	=51	=51	=51	=51	=51	=51	=51	=51	=51
4AM	A:sus4	1r	.	1r	.	4f# 4b 4dd	sleigh	.	123.087	.
4AM	A:maj	.	.	.	.	4e 4a 4cc#	bells	.	123.7	.
2BMm	B:7	.	.	.	.	4d# 4g# 4b	in	.	124.313	.
.	.	.	.	.	.	4d# 4f# 4a	the	.	.	.
=52	=52	=52	=52	=52	=52	=52	=52	=52	=52	=52
1EMm	E:7	1r	.	1r	.	[1d [1g# [1b	snow	A	125.539	.
=53	=53	=53	=53	=53	=53	=53	=53	=53	=53	=53
1EMm	E:7	1r	.	1r	.	2.d] 2.g#] 2.b]	_	.	127.991	.
.	.	.	.	.	.	4r	.	.	.	.
=54	=54	=54	=54	=54	=54	=54	=54	=54	=54	=54
*>Letter>B4	*>Letter>B4	*>Letter>B4	*>Letter>B4	*>Letter>B4	*>Letter>B4	*>Letter>B4	*>Letter>B4	*>Letter>B4	*>Letter>B4	*>Letter>B4
*>Label>Theme	*>Label>Theme	*>Label>Theme	*>Label>Theme	*>Label>Theme	*>Label>Theme	*>Label>Theme	*>Label>Theme	*>Label>Theme	*>Label>Theme	*>Label>Theme
1AM	A:maj	1r	.	1r	.	1c#	I'm	.	130.443	newline
=55	=55	=55	=55	=55	=55	=55	=55	=55	=55	=55
4DM	D:maj/5	1r	.	1r	.	4d	drea-	.	132.894	.
4AM	A:maj	.	.	.	.	4c#	-ming	.	133.506	.
4G#M	G#:maj/b2	.	.	.	.	4c	of	.	134.119	.
4AM	A:maj	.	.	.	.	4c#	a	.	134.731	.
=56	=56	=56	=56	=56	=56	=56	=56	=56	=56	=56
1Bmm	B:min7	1r	.	1r	.	1d	white	.	135.344	.
=57	=57	=57	=57	=57	=57	=57	=57	=57	=57	=57
2D#d	D#:dim/b2	1r	.	1r	.	4d#	Christ-	.	137.795	.
.	.	.	.	.	.	4e	-mas,	.	.	.
2EMm	E:7	.	.	.	.	2r	.	.	139.02	.
=58	=58	=58	=58	=58	=58	=58	=58	=58	=58	=58
1Bmm	B:min7	1r	.	1r	.	4r	.	.	140.245	newline
.	.	.	.	.	.	4d 4f#	with	.	.	.
.	.	.	.	.	.	4e 4g#	ev-	.	.	.
.	.	.	.	.	.	4f# 4a	-'ry	.	.	.
=59	=59	=59	=59	=59	=59	=59	=59	=59	=59	=59
2DM	D:maj	1r	.	1r	.	4g# 4b	Christ-	.	142.684	.
.	.	.	.	.	.	4f# 4a	-mas	.	.	.
2EMm	E:7	.	.	.	.	4e 4g#	card	.	143.904	.
.	.	.	.	.	.	4d 4f#	I	.	.	.
=60	=60	=60	=60	=60	=60	=60	=60	=60	=60	=60
1AM	A:maj	1r	.	1r	.	1c# 1e	write.	C	145.123	.
=61	=61	=61	=61	=61	=61	=61	=61	=61	=61	=61
4G#M	G#:maj/b2	2r	.	1r	.	2r	.	.	147.562	.
2.AM	A:maj	.	.	.	.	.	.	.	148.172	.
.	.	4C#	May	.	.	4A	May	.	.	.
.	.	8D	your	.	.	4B	your	.	.	.
.	.	[8E	days	.	.	.	.	.	.	.
=62	=62	=62	=62	=62	=62	=62	=62	=62	=62	=62
2AM	A:maj	2E]	_	1r	.	2c#	days	.	150.001	newline
2AMm	A:7	4r	.	.	.	4r	.	.	151.398	.
.	.	8A	be	.	.	4c#	be	.	.	.
.	.	8G#	_	.	.	.	.	.	.	.
=63	=63	=63	=63	=63	=63	=63	=63	=63	=63	=63
1AMm	A:7	4G	mer-	1r	.	4c#	mer-	.	152.795	.
.	.	4A	-ry,	.	.	4f#	-ry	.	.	.
.	.	4r	.	.	.	4r	.	.	.	.
.	.	12r	.	.	.	4e	and	.	.	.
.	.	[12G	and	.	.	.	.	.	.	.
.	.	12G]	_	.	.	.	.	.	.	.
=64	=64	=64	=64	=64	=64	=64	=64	=64	=64	=64
1DM	D:maj	[2F#	bright,	1r	.	[1a	bright	C	155.59	.
.	.	8F#]	_	.	.	.	.	.	.	.
.	.	8A	_	.	.	.	.	.	.	.
.	.	8F#	_	.	.	.	.	.	.	.
.	.	[8F	_	.	.	.	.	.	.	.
=65	=65	=65	=65	=65	=65	=65	=65	=65	=65	=65
1Dm	D:min6(7)	4F]	_	1r	.	4a]	.	.	158.384	.
.	.	4r	.	.	.	4r	.	.	.	.
.	.	4.AA	and	.	.	2r	.	.	.	.
.	.	8BB	may	.	.	.	.	.	.	.
=66	=66	=66	=66	=66	=66	=66	=66	=66	=66	=66
1AM	A:maj	2C#	all	1r	.	1r	.	.	161.178	newline
.	.	4r	.	.	.	.	.	.	.	.
.	.	8r	.	.	.	.	.	.	.	.
.	.	8C#	your	.	.	.	.	.	.	.
=67	=67	=67	=67	=67	=67	=67	=67	=67	=67	=67
1EMm	E:7	4.F#	Christ-	1r	.	1r	.	.	163.971	.
.	.	8GG#	-ma-	.	.	.	.	.	.	.
.	.	4.GG#	-ses	.	.	.	.	.	.	.
.	.	8GG#	be	.	.	.	.	.	.	.
=68	=68	=68	=68	=68	=68	=68	=68	=68	=68	=68
1AM	A:maj6	[1AA	white.	1r	.	1r	.	C	166.763	.
=69	=69	=69	=69	=69	=69	=69	=69	=69	=69	=69
1AM	A:maj6	1AA]	_	1r	.	1r	.	.	169.206	.
1r;	1r	r;	.	r;	.	r;	.	.	179.676	.
1r;	1r	r;	.	r;	.	r;	.	.	181.979	.
*-	*-	*-	*-	*-	*-	*-	*-	*-	*-	*-
!!!BillboardChartDate: 1962/12/29
!!!BillboardPeak: 12
!!!BillboardWeeksOnChart: 13
!!!COC: Bing Crosby
!!!ENC: Nathaniel Condit-Schultz
!!!EST: Awating manual error checking and editing.
!!!OTL: White Christmas
!!!RDF**chordsym: original McGill chord annotation + (implied pitch class set, with bass pitch in first position)
!!!RDF**harmony: **recip + pitch class of root + harmonic quality
!!!RDF**leadinstrument: original McGill primary instrumentation annotation
!!!RDF**phrase: newline = linebreak in original McGill transcription
!!!RDF**timestamp: McGill audio timestamp in seconds
!!!RDT: 2017/01/12/
!!!SampleActualRank: 38
!!!SampleID#: 0241
!!!SampleTargetRank: 40
!!!MBID: 26b68d84-b07f-4733-949d-86f8919f40be
